X:99
T:Farrell O'Gara
Z: id:dc-reel-88
M:C
L:1/8
K:D Major
B,|A,DD2 A,DFA|BFAF EABc|d2cA BdAF|GEFD EDB,D|!
A,DD2 A,DFA|BFAF EABc|d2cA BdAF|GFEG FDD:|!
e|fdd2 fdge|fdgf edBc|dBcA Bcde|fdgf e2de|!
[1 fdd2 fdge|fdgf edBc|dBcA BcdB|AFEF D3:|!
[2 fgaf efdA|defe dAFD|A,DD2 A,DFA|BFAF D3|]!